X: 16630
T: Hangman's Knot, The
R: hornpipe
M: 4/4
K: Dmajor
AG|:FDFD AGFA|dBBA BcdB|AGFA GFEG|FEDf edcB|
ABcd E2 EF|G2 BG ABAF|GFED cdef|1 d4 d2 AG:|2 d4 d2 (3ABc||
d2 fd B2 cd|edcB A2 bc|d2 fd B2 cd|edcB A2 bc|
dAAA dAAA|dede dAAA|dAFA GFED|fagf edcA|
dcdE F2 FD|GDGB A2 AF|GFED cdef|1 d4 d2 (3ABc:|2 d4 d4||

